!!!OTL: ECK FACH MUINEN HEREN VAN FALKENSTEUN
!!!ARE: Europa, Mitteleuropa, Deutschland, Lippe - Detmold
!!!SCT: E0062A
!!!YEM: Copyright 1995, estate of Helmut Schaffrath.
**kern
*ICvox
*Ivox
*M6/8
*k[b-]
*F:
{8f
=1
8cc
8dd
8cc
8a
8g
8f
=2
8b-
8cc
8dd
4cc}
{8f
=3
4cc
8cc
8ff
8ee
8dd
=4
4.dd
8cc
8r}
{8f
=5
8cc
8dd
8cc
8a
8g
8f
=6
8b-
8cc
8dd
4cc}
{8f
=7
4cc
8cc
8ff
8ee
8dd
=8
4.dd
4cc
8cc
=9
4.g
4f}
==
!!!AGN: erzaehlendes Volks - Lied, Ritter - Sage, Ballade ?
!!!ONB: ESAC (Essen Associative Code) Database: ERK1
!!!AMT: compound duple
!!!AIN: vox
!!!EED: Helmut Schaffrath
!!!EEV: 1.0
*-
